X: 25876
T: Matt Cunningham's Visit To Preston
R: hornpipe
M: 4/4
K: Gmajor
|:(3DEF|G>F (3GFE G>D (3DEF|G>D (3GAB d2 g>f|e>dc>B A>BG>A|B>AG>F E2 (3DEF|
G2 (3GFE G>D (3DEF|G>DG>B d2 g>f|e>dc>B A2 G>A|B>G (3GGG G2:|
|:(3Bc^c|d>Ge>^c d>Gb>a|g>Be>^c d2 g>f|e>Gd>G c>GB>G|A>F (3GFE D2 (3Bc^c|
d>Ge>^c d2 g>f|e>Gc>e d2 (3Bcd|e>Gd>G c>GB>G|A>D (3FED G2:|

